X:113
T:Hampsted Belles. JJo8.113
%%VWML:JohnsonVol8-2184-p57-0
F:http://www.vwml.org/record/JohnsonVol8/2184/p57
Z:Transcribed by Simon Furey and Lewis Jones
Z:vmp.Simon Wilson 2013 www.village-music-project.org.uk
Z:Dance added by John Chambers 2017
N:The 2nd strain's repeats are inconsistent, and the dance appears to have only 3 figures. Not fixed.
M:6/8
L:1/8
%Q:3/8=120
K:Bb
|:\
fdB fdB | bag fdB | fdB fdB | Ace dcB |\
fdB fdB | bag f=ef | cd=e fef | cd=ef3 ::
cAF cAF | cdc cAF | Bdf fdB | cdBA2G |\
FDB, BFD | fdB bfd | efg fbB | FGAB3 |]
W: Set 4 and Right hands across round
W:Left hands back again :| gallop down
W:up again and cast off |. Right and
W:Left at Top :|:
W:
T:My own Whim. JJo8.114
B:J.Johnson Choice Collection Vol 8 1758
Z:vmp.Simon Wilson 2013 www.village-music-project.org.uk
Z:Dance added by John Chambers 2017
N:The even-numbered bars are missing their final notes; adjusted to match several other copies online. [jc]
N:Also found in C/Am.
M:12/8
L:1/8
%Q:3/8=120
K:A
|: a |\
ecd ecd ecd e2a | fde fde fde faf |\
ecd ecd ecd efg | aec ecA B3 !fermata!A2 :|
|: c |\
AFG AFG AFG ABc | dcB AGF ^EFG C2c |\
dcB cfc dcB cFc | dcB cfB ABG "_D.C."F2 :|
W: Hey contrary sides . | . then on your
W:own sides . || . Cross over half
W:figure .|| Right and Left at Top
W::||:
W:
